icons/cannabis.svg

<svg width="48" height="48" viewBox="0 0 48 48" fill="none" xmlns="http://www.w3.org/2000/svg">
<path fill-rule="evenodd" clip-rule="evenodd" d="M24.8592 5.48839C24.6789 5.18555 24.3525 5 24 5C23.6475 5 23.3211 5.18555 23.1408 5.48839C21.1484 8.83446 20 12.78 20 17C20 17.4071 20.0107 17.8117 20.0318 18.2134C19.7115 17.8393 19.3745 17.475 19.0208 17.1213C16.282 14.3825 12.9051 12.646 9.32544 11.8997C8.9953 11.8309 8.65271 11.9331 8.41424 12.1716C8.17578 12.41 8.07357 12.7526 8.1424 13.0828C8.88869 16.6625 10.6252 20.0394 13.364 22.7782C14.2132 23.6274 15.1237 24.3802 16.0826 25.037C15.7245 25.0125 15.3636 25 15 25C11.4685 25 8.18137 26.1757 5.41158 28.1914C5.15298 28.3796 5 28.6802 5 29C5 29.3198 5.15298 29.6204 5.41158 29.8086C8.18137 31.8243 11.4685 33 15 33C16.072 33 17.1214 32.8917 18.1407 32.6844L18.134 32.696C16.9188 34.8008 16.4904 37.1622 16.7377 39.4974C16.7714 39.8155 16.9551 40.0982 17.2321 40.2581C17.5091 40.4181 17.8458 40.4358 18.1381 40.306C20.0979 39.4353 21.7947 38.0657 23 36.2316V41H25V36.2316C26.2053 38.0657 27.9021 39.4353 29.8619 40.306C30.1542 40.4358 30.4909 40.4181 30.7679 40.2581C31.0449 40.0982 31.2286 39.8155 31.2623 39.4974C31.5096 37.1622 31.0812 34.8008 29.866 32.696L29.8593 32.6844C30.8786 32.8917 31.928 33 33 33C36.5315 33 39.8186 31.8243 42.5884 29.8086C42.847 29.6204 43 29.3198 43 29C43 28.6802 42.847 28.3796 42.5884 28.1914C39.8186 26.1757 36.5315 25 33 25C32.6364 25 32.2755 25.0125 31.9174 25.037C32.8763 24.3802 33.7868 23.6274 34.636 22.7782C37.3748 20.0394 39.1113 16.6625 39.8576 13.0828C39.9264 12.7526 39.8242 12.41 39.5858 12.1716C39.3473 11.9331 39.0047 11.8309 38.6746 11.8997C35.0949 12.646 31.718 14.3825 28.9792 17.1213C28.6255 17.475 28.2885 17.8393 27.9682 18.2134C27.9893 17.8117 28 17.4071 28 17C28 12.78 26.8516 8.83446 24.8592 5.48839ZM24 25.7913C24.3271 24.5561 24.7752 23.3507 25.3446 22.1937C25.7719 20.5389 26 18.7978 26 17C26 13.8039 25.2791 10.7873 24 8.11571C22.7209 10.7873 22 13.8039 22 17C22 18.7978 22.2281 20.5389 22.6554 22.1937C23.2248 23.3507 23.6729 24.5561 24 25.7913ZM33.2218 21.364C31.2324 23.3534 28.8669 24.7532 26.327 25.5685C26.6797 24.7067 26.9807 23.8165 27.2262 22.9024C28.0267 21.3219 29.0819 19.847 30.3934 18.5355C32.4353 16.4936 34.8734 15.0728 37.4897 14.2676C36.6846 16.8839 35.2637 19.322 33.2218 21.364ZM20.7738 22.9024C21.0193 23.8165 21.3203 24.7067 21.673 25.5685C19.1331 24.7532 16.7676 23.3534 14.7782 21.364C12.7363 19.322 11.3154 16.8839 10.5103 14.2676C13.1266 15.0728 15.5647 16.4936 17.6066 18.5355C18.9181 19.847 19.9733 21.3219 20.7738 22.9024ZM22.7593 30.9743C22.3759 31.1861 21.9849 31.3827 21.5869 31.5635C20.9144 32.174 20.3334 32.8865 19.8661 33.696C19.1406 34.9526 18.7543 36.3296 18.6827 37.7457C19.8733 36.9756 20.8726 35.9526 21.5981 34.696C22.2675 33.5366 22.6481 32.2748 22.7593 30.9743ZM15 27C17.4644 27 19.8043 27.6559 21.901 28.837C21.4077 29.1416 20.9381 29.4825 20.4968 29.859C18.7785 30.5988 16.9273 31 15 31C12.4244 31 9.98488 30.2836 7.81669 29C9.98488 27.7164 12.4244 27 15 27ZM27.5032 29.859C27.0619 29.4825 26.5923 29.1416 26.099 28.837C28.1957 27.6559 30.5356 27 33 27C35.5756 27 38.0151 27.7164 40.1833 29C38.0151 30.2836 35.5756 31 33 31C31.0727 31 29.2215 30.5988 27.5032 29.859ZM25.2407 30.9743C25.3519 32.2748 25.7325 33.5366 26.4019 34.696C27.1274 35.9526 28.1267 36.9756 29.3173 37.7457C29.2457 36.3296 28.8594 34.9526 28.1339 33.696C27.6666 32.8865 27.0856 32.174 26.4131 31.5635C26.0151 31.3827 25.6241 31.1861 25.2407 30.9743Z" fill="black"/>
</svg>

<svg
  xmlns="http://www.w3.org/2000/svg"
  width="24"
  height="24"
  viewBox="0 0 24 24"
  fill="none"
  stroke="currentColor"
  stroke-width="2"
  stroke-linecap="round"
  stroke-linejoin="round"
>
  <path
    fill-rule="evenodd"
    d="M24.86 5.488a1 1 0 0 0-1.72 0C21.149 8.834 20 12.78 20 17q0 .611.032 1.213-.48-.561-1.011-1.092A19.18 19.18 0 0 0 9.325 11.9a1 1 0 0 0-1.183 1.183 19.18 19.18 0 0 0 7.94 11.954A16 16 0 0 0 15 25c-3.531 0-6.819 1.176-9.588 3.191a1 1 0 0 0 0 1.618C8.182 31.824 11.469 33 15 33a15.7 15.7 0 0 0 3.14-.316l-.006.012c-1.215 2.105-1.644 4.466-1.396 6.801a1 1 0 0 0 1.4.809c1.96-.87 3.657-2.24 4.862-4.074V41h2v-4.768c1.205 1.834 2.902 3.203 4.862 4.074a1 1 0 0 0 1.4-.809c.248-2.335-.18-4.696-1.396-6.801l-.007-.012A15.7 15.7 0 0 0 33 33c3.532 0 6.819-1.176 9.588-3.191a1 1 0 0 0 0-1.618C39.818 26.176 36.532 25 33 25q-.545 0-1.083.037a19.175 19.175 0 0 0 7.94-11.954 1 1 0 0 0-1.182-1.183 19.18 19.18 0 0 0-10.707 6.313Q28 17.611 28 17c0-4.22-1.148-8.166-3.14-11.512M24 25.791a19.4 19.4 0 0 1 1.345-3.597C25.772 20.539 26 18.798 26 17c0-3.196-.72-6.213-2-8.884-1.28 2.671-2 5.688-2 8.884 0 1.798.228 3.539.655 5.194A19.4 19.4 0 0 1 24 25.79m9.222-4.427a17.1 17.1 0 0 1-6.895 4.204 22 22 0 0 0 .9-2.666c.8-1.58 1.855-3.055 3.166-4.367a17.1 17.1 0 0 1 7.097-4.267 17.1 17.1 0 0 1-4.268 7.096m-12.448 1.538q.369 1.374.899 2.666a17.1 17.1 0 0 1-6.895-4.204 17.1 17.1 0 0 1-4.268-7.096 17.1 17.1 0 0 1 7.097 4.267 17 17 0 0 1 3.167 4.367m1.985 8.072a17 17 0 0 1-1.172.59 8.9 8.9 0 0 0-1.72 2.132 8.95 8.95 0 0 0-1.184 4.05 8.95 8.95 0 0 0 2.915-3.05 8.9 8.9 0 0 0 1.161-3.722M15 27c2.464 0 4.804.656 6.901 1.837q-.741.458-1.404 1.022A13.8 13.8 0 0 1 15 31c-2.576 0-5.015-.716-7.183-2 2.168-1.284 4.607-2 7.183-2m12.503 2.859q-.662-.565-1.404-1.022C28.196 27.656 30.536 27 33 27c2.576 0 5.015.716 7.183 2-2.168 1.284-4.607 2-7.183 2-1.927 0-3.779-.401-5.497-1.141m-2.262 1.115a8.9 8.9 0 0 0 1.16 3.722 8.95 8.95 0 0 0 2.916 3.05 8.95 8.95 0 0 0-1.183-4.05 8.9 8.9 0 0 0-1.72-2.132 17 17 0 0 1-1.173-.59"
    clip-rule="evenodd"
  />
</svg>
